X: 32665
T: Poet's Choice
R: hornpipe
M: 4/4
K: Gmajor
|:G2GA B2Bd|efge dBAG|E2A2 ABAG|E2A2 A2BA|
G2GA B2Bd|efge dBAG|E2G2 GAGE|D2G2 G4:|
|:B2BG A2BA|GAGE D2B,2|E2A2 ABAG|E2A2 A2GA|
B2BG A2BA|GAGE D2B,2|E2G2 GAGE|D2G2 G4:|

